assets/icons/wallet.svg

<svg width="24px" height="24px" viewBox="0 0 24 24" fill="none" xmlns="http://www.w3.org/2000/svg">
<g id="Iconly/Curved/Wallet">
<g id="Wallet">
<path id="Stroke 1" d="M21.1712 14.6755H17.2845C15.8693 14.6755 14.7217 13.5279 14.7217 12.1117C14.7217 10.6964 15.8693 9.54883 17.2845 9.54883H21.1407" stroke="#130F26" stroke-width="1.5" stroke-linecap="round" stroke-linejoin="round"/>
<path id="Stroke 3" d="M17.7219 12.0531H17.4248" stroke="#130F26" stroke-width="1.5" stroke-linecap="round" stroke-linejoin="round"/>
<path id="Stroke 5" d="M7.6062 8.14367H11.6662" stroke="#130F26" stroke-width="1.5" stroke-linecap="round" stroke-linejoin="round"/>
<path id="Stroke 7" fill-rule="evenodd" clip-rule="evenodd" d="M2.71411 12.2532C2.71411 5.8484 5.03887 3.71411 12.0151 3.71411C18.9903 3.71411 21.3151 5.8484 21.3151 12.2532C21.3151 18.657 18.9903 20.7922 12.0151 20.7922C5.03887 20.7922 2.71411 18.657 2.71411 12.2532Z" stroke="#130F26" stroke-width="1.5" stroke-linecap="round" stroke-linejoin="round"/>
</g>
</g>
</svg>

<?xml version="1.0" encoding="utf-8"?>
<!-- Generator: Adobe Illustrator 27.9.6, SVG Export Plug-In . SVG Version: 9.03 Build 54986)  -->
<svg version="1.2" baseProfile="tiny" id="Layer_1" xmlns="http://www.w3.org/2000/svg" xmlns:xlink="http://www.w3.org/1999/xlink"
	 x="0px" y="0px" viewBox="0 0 24 24" overflow="visible" xml:space="preserve">
<g id="Iconly_x2F_Curved_x2F_Wallet">
	<g id="Wallet">
		<path id="Stroke_1" fill="none" stroke="#130F26" stroke-width="1.5" stroke-linecap="round" stroke-linejoin="round" d="
			M21.171,14.675h-3.887c-1.415,0-2.563-1.148-2.563-2.564c0-1.415,1.148-2.563,2.563-2.563h3.856"/>
		<path id="Stroke_3" fill="none" stroke="#130F26" stroke-width="1.5" stroke-linecap="round" stroke-linejoin="round" d="
			M17.722,12.053h-0.297"/>
		<path id="Stroke_5" fill="none" stroke="#130F26" stroke-width="1.5" stroke-linecap="round" stroke-linejoin="round" d="
			M7.606,8.144h4.06"/>
		<path id="Stroke_7" fill="none" stroke="#130F26" stroke-width="1.5" stroke-linecap="round" stroke-linejoin="round" d="
			M2.714,12.253c0-6.405,2.325-8.539,9.301-8.539c6.975,0,9.3,2.134,9.3,8.539c0,6.404-2.325,8.539-9.3,8.539
			C5.039,20.792,2.714,18.657,2.714,12.253z"/>
	</g>
</g>
</svg>
